icon/pk/open-an-account.svg

<svg viewBox="0 0 48 48" fill="none" xmlns="http://www.w3.org/2000/svg" height="1em" width="1em">
  <path d="M42 24V9C42 7.34315 40.6569 6 39 6H9C7.34315 6 6 7.34315 6 9V39C6 40.6569 7.34315 42 9 42H24" stroke="black" stroke-width="4" stroke-linecap="round" stroke-linejoin="round"/>
  <path d="M39.0508 33L39.0508 43" stroke="black" stroke-width="4" stroke-linecap="round" stroke-linejoin="round"/>
  <path d="M44 37.9497L34 37.9497" stroke="black" stroke-width="4" stroke-linecap="round" stroke-linejoin="round"/>
  <circle cx="24" cy="18" r="5" fill="#2F88FF" stroke="black" stroke-width="4" stroke-linecap="round" stroke-linejoin="round"/>
  <path d="M33 31C33 26.5817 28.9706 23 24 23C19.0294 23 15 26.5817 15 31" stroke="black" stroke-width="4" stroke-linecap="round" stroke-linejoin="round"/>
</svg>

<svg width="48" height="48" fill="none" xmlns="http://www.w3.org/2000/svg"><path d="M42 24V9a3 3 0 0 0-3-3H9a3 3 0 0 0-3 3v30a3 3 0 0 0 3 3h15M39.05 33v10M44 37.95H34" stroke="#000" stroke-width="4" stroke-linecap="round" stroke-linejoin="round"/><circle cx="24" cy="18" r="5" fill="#2F88FF" stroke="#000" stroke-width="4" stroke-linecap="round" stroke-linejoin="round"/><path d="M33 31c0-4.418-4.03-8-9-8s-9 3.582-9 8" stroke="#000" stroke-width="4" stroke-linecap="round" stroke-linejoin="round"/></svg>
